build/img/search_button.svg

<svg width="13" height="13" viewBox="0 0 13 13" fill="none" xmlns="http://www.w3.org/2000/svg">
<path d="M8.68135 1.48741C6.69814 -0.495804 3.4703 -0.495804 1.48709 1.48741C-0.495696 3.47106 -0.495696 6.69846 1.48709 8.6821C3.2532 10.4478 6.00382 10.6369 7.98574 9.25819C8.02744 9.45553 8.12289 9.64383 8.27637 9.79731L11.1646 12.6855C11.5855 13.1055 12.2656 13.1055 12.6843 12.6855C13.1048 12.265 13.1048 11.5849 12.6843 11.1657L9.79613 8.27669C9.64351 8.1245 9.45477 8.02863 9.25744 7.98692C10.6371 6.00457 10.4479 3.25438 8.68135 1.48741ZM7.76949 7.77024C6.28885 9.25089 3.87916 9.25089 2.39895 7.77024C0.919166 6.2896 0.919166 3.88034 2.39895 2.3997C3.87916 0.919489 6.28885 0.919489 7.76949 2.3997C9.25013 3.88034 9.25013 6.2896 7.76949 7.77024Z" fill="white"/>
</svg>

<svg width="13" height="13" fill="none" xmlns="http://www.w3.org/2000/svg"><path d="M8.681 1.487a5.093 5.093 0 00-7.194 0 5.095 5.095 0 000 7.195 5.093 5.093 0 006.499.576c.041.198.137.386.29.54l2.889 2.887a1.074 1.074 0 101.52-1.52l-2.89-2.887a1.075 1.075 0 00-.539-.29 5.092 5.092 0 00-.576-6.5zM7.77 7.77a3.802 3.802 0 01-5.37 0 3.803 3.803 0 010-5.37 3.803 3.803 0 015.37 0 3.802 3.802 0 010 5.37z" fill="#fff"/></svg>
